X:1
T:Title
%%score { ( 1 3 ) | 2 }
L:1/8
M:4/4
K:Eb
V:1 treble nm="Grand Piano"
V:3 treble 
V:2 bass 
V:1
 z4 z2[Q:1/4=100] EF | GG G2 G2 FE | B6 GB | c2 cc B2 G2 |[M:3/4] [DF]6 |[M:1/4] EF | %6
[M:4/4] GG G2 [GB]2 [Ge][Gd] | c6 cc | B2 G2 [DA]2 [DF]2 |[M:3/4] E6 |[M:1/4] [Ge]2 | %11
[M:4/4] [Ae][Ad][Ad][Ac] [DF][DG][FA][Ae] | d6 z2 | cBBG EFGc | B6 z2 | GGFE B2 G>G | %16
[M:9/8] A>AA A e2- ecc |[M:4/4] BGGB B[CDA][B,DG][A,DF] |[M:3/4] [G,E]6 |] %19
V:2
 z4 z2 [E,G,][E,A,E] | [E,B,E][E,B,E] [E,B,E]2 [E,B,E]2 [E,A,E][E,G,] | [E,G,E]6 [E,B,E][G,B,E] | %3
 [A,E]2 [A,E][A,E] [G,B,E]2 [E,B,E]2 |[M:3/4] [B,,B,]6 |[M:1/4] [E,G,][E,A,E] | %6
[M:4/4] [E,B,E][E,B,E] [E,B,E]2 [E,E]2 [E,B,][E,E] | [A,EA]6 [A,EA][A,EA] | %8
 [B,EG]2 [B,E]2[K:bass] [B,,B,]2 [B,,A,]2 |[M:3/4] [E,G,]6 |[M:1/4] [E,B,]2 | %11
[M:4/4] [F,B,][F,B,][F,B,][F,B,] [B,,B,][B,,B,][B,,B,][B,,F,] | %12
 [B,,F,]2 [B,,F,][B,,F,] [B,,F,]2 [B,,A,]2 | %13
 [E,A,E][E,G,E][E,G,E][E,B,E] [E,G,][E,A,E][E,B,E][E,A,E] | %14
 [E,G,E]2 [E,G,][E,G,] [E,G,]2 [E,B,E]>[E,B,E] | %15
 [E,B,E][E,B,E][E,A,E][E,G,] [E,G,E]2 [E,_DE]>[E,DE] | %16
[M:9/8][K:treble] [A,CE]>[A,CE][A,CE] [A,CE] [=A,C_G]2- [A,CG][A,EG][A,EG] | %17
[M:4/4] [B,EG][K:bass][B,E][B,E][G,B,E] [F,B,D]B,,B,,B,, |[M:3/4] E,6 |] %19
V:3
 x8 | x8 | x8 | x8 |[M:3/4] x6 |[M:1/4] x2 |[M:4/4] x8 | x8 | x8 |[M:3/4] x6 |[M:1/4] x2 | %11
[M:4/4] x8 | A2 AA A2 [Dc]2 | x8 | z2 EE E2 G>G | x8 |[M:9/8] x9 |[M:4/4] x8 |[M:3/4] x6 |] %19

